packages/foundations/assets/icons/functional/images/layout/resize_16.svg

<svg width="16" height="16" viewBox="0 0 16 16" fill="none" xmlns="http://www.w3.org/2000/svg">
<g clip-path="url(#clip0_185_1509)">
<path fill-rule="evenodd" clip-rule="evenodd" d="M5.59998 9.60001C6.01024 9.60001 6.39998 9.93734 6.39998 10.4V13.6C6.39998 14.0103 6.07379 14.4 5.59998 14.4H2.39998C2.00647 14.4 1.59998 14.0852 1.59998 13.6V10.4C1.59998 9.98974 1.93562 9.60001 2.39998 9.60001H5.59998ZM12.8 1.60001C13.6435 1.60001 14.4 2.29097 14.4 3.20001V11.2C14.4 12.0435 13.7045 12.8 12.8 12.8H8.39998C7.95815 12.8 7.59998 12.4418 7.59998 12C7.59998 11.5897 7.92889 11.2 8.39998 11.2H12.8V3.20001H4.79998V7.60001C4.79998 8.04183 4.4418 8.40001 3.99998 8.40001C3.58971 8.40001 3.19998 8.05798 3.19998 7.60001V3.20001C3.19998 2.35652 3.86817 1.60001 4.79998 1.60001H12.8ZM4.79998 11.2H3.19998V12.8H4.79998V11.2Z" fill="#1A1C1F"/>
</g>
<defs>
<clipPath id="clip0_185_1509">
<rect width="16" height="16" fill="white"/>
</clipPath>
</defs>
</svg>

<svg xmlns="http://www.w3.org/2000/svg" width="16" height="16" fill="none"><g clip-path="url(#a)"><path fill="#1A1C1F" fill-rule="evenodd" d="M5.6 9.6c.41 0 .8.337.8.8v3.2a.8.8 0 0 1-.8.8H2.4a.8.8 0 0 1-.8-.8v-3.2c0-.41.336-.8.8-.8zm7.2-8c.843 0 1.6.691 1.6 1.6v8c0 .844-.696 1.6-1.6 1.6H8.4a.8.8 0 0 1 0-1.6h4.4v-8h-8v4.4a.8.8 0 0 1-.8.8.81.81 0 0 1-.8-.8V3.2c0-.843.668-1.6 1.6-1.6zm-8 9.6H3.2v1.6h1.6z" clip-rule="evenodd"/></g><defs><clipPath id="a"><path fill="#fff" d="M0 0h16v16H0z"/></clipPath></defs></svg>
